!!!!SEGMENT: pl-kk--kk-i-324--001_casali-giovanni-battista--in-hac-festiva-die-in-hac-festiva-die.krn
!!!cenid: 17xx:2132
!!!COM: Casali, Giovanni Battista
!!!COM-rismid: pe30000607
!!!CDT: 1715-1792/07/06
!!!CNT: Italian
!!!OPR: In hac festiva die
!!!OTL: In hac festiva die
!!!OMV: 001
!!!PDT:
!!!AGN: Sacred
!!!SMS-siglum: PL-Kk
!!!SMS-shelfmark: Kk.I.324
!!!SMS-shelfwork: 001-001 M
!!!SMS-variant:
!!!SMS-altvar:
!!!NIFC-rismid: 1001146199
!!!URL-scan: http://repozytorium.nifc.pl/skany/pl-kk-nut--i-324
!!!ONB-nifc: UWAGA: części: 1. In hac festiva die (Recitativo), 2. Iam canorus (Allegro), 3. Tristitie ergo mortales (Recitativo), 4. Caelesti sacrate (Andante), 5. Alleluia (Allegro)
!!!key:
**kern	**kern	**text	**kern	**kern	**kern
*part5	*part4	*part4	*part3	*part2	*part1
*staff5	*staff4	*staff4	*staff3	*staff2	*staff1
*Iempty	*Iempty	*	*Iviola	*Ivioln	*Ivioln
*I"[bc]	*I"[Baſso]	*	*I"Viola	*I"Violino Secondo	*I"Violino Primo
*I'[bc]	*I'[B]	*	*I'vla	*I'vl 2	*I'vl 1
*clefF4	*clefF4	*	*clefC3	*clefG2	*clefG2
*k[f#c#]	*k[f#c#]	*	*k[f#c#]	*k[f#c#]	*k[f#c#]
*D:	*D:	*	*D:	*D:	*D:
*M4/4	*M4/4	*	*M4/4	*M4/4	*M4/4
*met(c)	*met(c)	*	*met(c)	*met(c)	*met(c)
=1	=1	=1	=1	=1	=1
*	*	*	*all\right	*	*
!	!	!	!LO:TX:t=Rec&colon;vo	!LO:TX:t=Rec&colon;vo	!LO:TX:t=Rec&colon;vo
!LO:TX:t=Rec&colon;vo	!LO:TX:t=Rec&colon;vo	!	!LO:TX:t=P:problem:pomocniczo zapisana partia Baſso	!LO:TX:t=P:problem:pomocniczo zapisana partia Baſso	!LO:TX:t=P:problem:pomocniczo zapisana partia Baſso
4D/	1r	.	4d\	4ff#/ 4a/ 4d/	4ff#/ 4a/ 4d/
4D/	.	.	4d\	4ff#/ 4a/ 4d/	4ff#/ 4a/ 4d/
4D/	.	.	4d\	4ff#/ 4a/ 4d/	4ff#/ 4a/ 4d/
*	*	*	*	*all\right	*
4r	.	.	4r	16ff#\LL	16aa\LL
.	.	.	.	16dd\	16ff#\
.	.	.	.	16ee\	16gg\
.	.	.	.	16cc#\JJ	16ee\JJ
=2	=2	=2	=2	=2	=2
4D/	1r	.	4d\	4dd/ 4d/	4ff#/ 4a/ 4d/
4D/	.	.	4d\	4dd/ 4d/	4ff#/ 4a/ 4d/
4D/	.	.	4d\	4dd/ 4d/	4ff#/ 4a/ 4d/
4r	.	.	4r	16ff#\LL	16aa\LL
.	.	.	.	16dd\	16ff#\
.	.	.	.	16ee\	16gg\
.	.	.	.	16cc#\JJ	16ee\JJ
=3	=3	=3	=3	=3	=3
8D/L	1r	.	8d\L	8dd/L 8d/	8ff#/L 8a/ 8d/
8D/	.	.	8d\	8ff#/J	8aa/J
8D/	.	.	8d\	8dd/L 8d/	8ff#/L 8a/ 8d/
8D/J	.	.	8d\J	8ff#/J	8aa/J
8AA/L	.	.	8A/L	16ee\LL	16gg\LL
.	.	.	.	16dd\	16ff#\
8AA/	.	.	8A/	16cc#\	16ee\
.	.	.	.	16ee\JJ	16ff#\JJ
8AA/	.	.	8A/	16ee\LL	16gg\LL
.	.	.	.	16dd\	16ff#\
8AA/J	.	.	8A/J	16cc#\	16ee\
.	.	.	.	16ee\JJ	16gg\JJ
=4	=4	=4	=4	=4	=4
*	*	*	*^	*	*
8D/L	1r	.	2d\	2ryy	8dd/L 8d/	8ff#/L 8a/ 8d/
8D/	.	.	.	.	8ff#/J	8aa/
8D/	.	.	.	.	8dd/L 8d/	8ff#/ 8a/ 8d/
8D/J	.	.	.	.	8ff#/J	8aa/J
!	!	!	!LO:LB:g=original	!	!LO:LB:g=original	!LO:LB:g=original
8AA/L	.	.	2A\	2e/	16ee\LL	16gg\LL
.	.	.	.	.	16dd\	16ff#\
8AA/	.	.	.	.	16cc#\	16ee\
.	.	.	.	.	16ee\JJ	16ff#\JJ
8AA/	.	.	.	.	16ee\LL	16gg\LL
.	.	.	.	.	16dd\	16ff#\
8AA/J	.	.	.	.	16cc#\	16ee\
.	.	.	.	.	16ee\JJ	16gg\JJ
*	*	*	*v	*v	*	*
=5	=5	=5	=5	=5	=5
8D/L	1r	.	8d\L	8dd/L 8d/	8ff#/L 8a/ 8d/
8D/	.	.	8d\	16ff#/L 16a/ 16d/	16ff#/L 16a/ 16d/
.	.	.	.	16ff#/JJ 16a/ 16d/	16ff#/JJ 16a/ 16d/
8D/	.	.	8d\	8ff#/L 8a/ 8d/	8ff#/L 8a/ 8d/
8D/J	.	.	8d\J	8ff#/J 8a/ 8d/	8ff#/J 8a/ 8d/
8D/L	.	.	8d\L	4ff#/ 4a/ 4d/	4ff#/ 4a/ 4d/
8D/	.	.	8d\	.	.
8D/	.	.	8d\	4ff#/ 4a/ 4d/	4ff#/ 4a/ 4d/
8D/J	.	.	8d\J	.	.
=6	=6	=6	=6	=6	=6
!LO:LB:g=original	!LO:LB:g=original	!	!	!	!
4D/	4r	.	4d\	4ff#/ 4a/ 4d/	4ff#/ 4a/ 4d/
4r	8r	.	4r	4r	4r
.	8A\	in	.	.	.
2r	8F#\	hac	2r	2r	2r
.	8F#\	fes-	.	.	.
.	8G\	-ti-	.	.	.
.	8A\	-va	.	.	.
=7	=7	=7	=7	=7	=7
1r	8A\	di-	2r	2r	1r
.	8D/	-e	.	.	.
.	8r	.	.	.	.
.	8D/	quae	.	.	.
!	!	!	!LO:LB:g=original	!LO:LB:g=original	!
.	8F#\	Nu-	2r	2r	.
.	8F#\	-mi-	.	.	.
.	8F#\	-n(us)	.	.	.
.	8G\	E-	.	.	.
=8	=8	=8	=8	=8	=8
2r	8A\	-ter-	2r	2r	2r
.	8A\	-ni	.	.	.
.	16r	.	.	.	.
.	16A\	E-	.	.	.
.	16A\	-ter-	.	.	.
.	16B\	-n(us)	.	.	.
4BB/	8G#X\	a-	4B/	4d/	4g#X'/
.	8G#\	-mor	.	.	.
4r	8r	.	4r	4r	4r
.	8D\	mor-	.	.	.
=9	=9	=9	=9	=9	=9
!LO:LB:g=original	!LO:LB:g=original	!	!	!	!
1r	8.G#X\	-ta-	1r	1r	1r
.	16G#\	-li-	.	.	.
*	*Xtuplet	*	*	*	*
.	12G#\	-um	.	.	.
.	12G#\	cor-	.	.	.
.	12A\	-da	.	.	.
.	4B\	mul-	.	.	.
.	4B\	-cet	.	.	.
=10	=10	=10	=10	=10	=10
!	!	!	!LO:LB:g=original	!LO:LB:g=original	!LO:LB:g=original
1r	8B\	hu-	1r	1r	1r
.	16B\	-iuſ	.	.	.
.	16B\	pre-	.	.	.
.	8A\	-ben-	.	.	.
.	8B\	-do	.	.	.
.	8G#X\	Di-	.	.	.
.	8G#\	-vi	.	.	.
.	8G#\	in-	.	.	.
.	16A\	-cli-	.	.	.
.	16B\	-ta	.	.	.
=11	=11	=11	=11	=11	=11
4G#X\	8B\	mun-	4B/	4e/	4b\
.	8E\	-do	.	.	.
4r	8G#X\	ſan-	4r	4r	4r
.	8B\	-cti-	.	.	.
!LO:LB:g=original	!LO:LB:g=original	!	!	!	!
2r	4B\	-ta-	2r	2r	2r
.	8D\	-tiſ	.	.	.
.	8E\	ex-	.	.	.
=12	=12	=12	=12	=12	=12
*	*	*	*	*	*^
4AA/	8C#/	-em-	4c#\	4cc#/ 4e/ 4A/	4ee/ 4cc#/	4a\
.	8C#/	-pla	.	.	.	.
4AA/	4r	.	4c#\	4cc#/ 4e/ 4A/	4ee/ 4cc#/	4a\
!	!	!	!LO:LB:g=original	!LO:LB:g=original	!LO:LB:g=original	!
4AA/	2r	.	4c#\	4cc#/ 4e/ 4A/	4ee/ 4cc#/	4a\
4r	.	.	4r	16cc#/LL	16ee\LL	4ryy
.	.	.	.	16a/	16cc#\	.
.	.	.	.	16b/	16dd\	.
.	.	.	.	16g#X/JJ	16b\JJ	.
*	*	*	*	*	*v	*v
=13	=13	=13	=13	=13	=13
4AA/	1r	.	4c#\	4a/ 4e/ 4c#/	4cc#/ 4e/ 4A/
4AA/	.	.	4c#\	4a/ 4e/ 4c#/	4cc#/ 4e/ 4A/
4AA/	.	.	4c#\	4a/ 4e/ 4c#/	4cc#/ 4e/ 4A/
4r	.	.	4r	16cc#/LL	16ee\LL
.	.	.	.	16a/	16cc#\
.	.	.	.	16b/	16dd\
.	.	.	.	16g#X/JJ	16b\JJ
=14	=14	=14	=14	=14	=14
8A\L	1r	.	[1e\	8a\L	8cc#/L 8e/
8A\	.	.	.	8cc#\	8ee/
8A\	.	.	.	8a\	8cc#/ 8e/
8A\J	.	.	.	8cc#\J	8ee/J
8E\L	.	.	.	16b\LL	16dd\LL
.	.	.	.	16a\	16cc#\
8E\	.	.	.	16g#X\	16b\
.	.	.	.	16a\JJ	16cc#\JJ
8E\	.	.	.	16b\LL	16dd\LL
.	.	.	.	16a\	16cc#\
8E\J	.	.	.	16g#X\	16b\
.	.	.	.	16a\JJ	16dd\JJ
=15	=15	=15	=15	=15	=15
8A\L	1r	.	1e\]	8a/L	8cc#/L 8e/
8A\	.	.	.	8cc#/	8ee/
8A\	.	.	.	8a/	8cc#/ 8e/
8A\J	.	.	.	8cc#/J	8ee/J
8E\L	.	.	.	16b/LL	16dd\LL
.	.	.	.	16a/	16cc#\
8E\	.	.	.	16g#X/	16b\
.	.	.	.	16a/JJ	16cc#\JJ
8E\	.	.	.	16b/LL	16dd\LL
.	.	.	.	16a/	16cc#\
8E\J	.	.	.	16g#X/	16b\
.	.	.	.	16a/JJ	16dd\JJ
=16	=16	=16	=16	=16	=16
!LO:LB:g=original	!LO:LB:g=original	!	!LO:PB:g=original	!LO:PB:g=original	!LO:PB:g=original
4AA/	4r	.	4A/	4a/ 4e/ 4c#/	4cc#/ 4e/ 4A/
4r	8r	.	4r	4r	4r
.	8E\	A-	.	.	.
2r	8A\	-ver-	2r	2r	2r
.	8A\	ni	.	.	.
.	8A\	con-	.	.	.
.	8c#\	-tra	.	.	.
=17	=17	=17	=17	=17	=17
1r	4A\	do-	1r	1r	1r
.	4A\	-loſ	.	.	.
.	4A\	pec-	.	.	.
.	8A\	-to-	.	.	.
.	8B\	-ra	.	.	.
=18	=18	=18	=18	=18	=18
*	*	*	*	*^	*
8.r	8G\	ves-	8.r	8.r	8.ryy	8.r
.	8G\	-tra	.	.	.	.
16C#/	.	.	16a\	16ee/	16a\	16gg\
4C#/	8r	.	4a\	4ee/	4cc#\	4gg\
.	8E\	ar-	.	.	.	.
2r	4G\	-ma-	2r	2r	2ryy	2r
.	8G\	-te	.	.	.	.
.	8A\	mor-	.	.	.	.
*	*	*	*	*v	*v	*
=19	=19	=19	=19	=19	=19
!LO:PB:g=original	!LO:PB:g=original	!	!	!	!
8.r	8F#\	-ta-	8.r	8.r	8.r
.	8F#\	-leſ	.	.	.
16D\	.	.	16a\	16dd\	16ff#\
4D\	8r	.	4a\	4dd\	4ff#\
.	16A\	ac	.	.	.
.	16d\	bel-	.	.	.
!	!	!	!LO:LB:g=original	!LO:LB:g=original	!LO:LB:g=original
8.r	8d\	-la-	8.r	8.r	8.r
.	8A\	-te	.	.	.
16D\	.	.	16f#\	16ff#\	16aa\
4D\	8r	.	4f#\	4ff#\	4aa\
.	8A\	bel-	.	.	.
=20	=20	=20	=20	=20	=20
8.r	8A\	-la-	8.r	8.r	8.r
.	8D\	-te	.	.	.
16D\	.	.	16a\	16ff#\	16aa\
4D\	8r	.	4a\	4ff#\	4aa\
.	8A\	sub	.	.	.
2r	8cn\	tan-	2r	2r	2r
.	8c\	-to	.	.	.
.	8c\	pug-	.	.	.
.	8B\	-nae	.	.	.
=21	=21	=21	=21	=21	=21
!LO:TX:t=P:problem:mixed beam	!	!	!LO:TX:t=P:problem:mixed beam	!	!
8G\L	8G\	Du-	8g\L	8gg/ 8b/ 8d/	8gg/ 8b/ 8e/
8GG/	8G\	-ce	8G/	8G/L	8G/L
8BB/	4r	.	8B/	8B/	8B/
8D/J	.	.	8d/J	8d/J	8d/J
8G\L	2r	.	8g\L	8g/L	8g/L
8D\	.	.	8d\	8d/	8d/
8G\	.	.	8g\	8g/	8g/
8B\J	.	.	8b\J	8b/J	8b/J
=22	=22	=22	=22	=22	=22
!LO:LB:g=original	!	!	!	!	!
!LO:TX:t=P:problem:mixed beam	!LO:LB:g=original	!	!LO:TX:t=P:problem:mixed beam	!	!
8G\L	1r	.	8g\L	8g/L	8g/L
8GG/	.	.	8G/	8g/	8g/
8BB/	.	.	8B/	8b/	8b/
8D/J	.	.	8d/J	8dd/J	8dd/J
8G\L	.	.	8g\L	8gg\L	8gg\L
8D\	.	.	8d\	8dd\	8dd\
8G\	.	.	8g\	8gg\	8gg\
8B\J	.	.	8b\J	8bb\J	8bb\J
=23	=23	=23	=23	=23	=23
!	!	!	!LO:LB:g=original	!LO:LB:g=original	!LO:LB:g=original
4G\	4r	.	4g\	4gg/ 4b/ 4d/	4gg/ 4b/ 4d/
4r	8.D\	hac	4r	4r	4r
.	16D\	re-	.	.	.
2r	4G\	-la-	2r	2r	2r
.	8G\	-ta	.	.	.
.	8B\	vi-	.	.	.
=24	=24	=24	=24	=24	=24
!LO:TX:t=P:problem:mixed beam	!	!	!LO:TX:t=P:problem:mixed beam	!	!
8G\L	8.G\	-cto-	8g\L	8gg/ 8b/ 8d/	8gg/ 8b/ 8d/
8GG/	.	.	8G/	8g\L	8g/L
.	16G\	-ri-	.	.	.
8BB/	4G\	-a	8B/	8b\	8b/
8D/J	.	.	8d/J	8dd\J	8dd/J
4G\	8B\	e-	4g\	4gg/ 4b/ 4d/	4gg/ 4b/ 4d/
.	16B\	-ri-	.	.	.
.	16B\	-tiſ	.	.	.
4r	8A\	Cae-	4r	4r	4r
.	8G\	-li	.	.	.
=25	=25	=25	=25	=25	=25
*	*	*	*	*^	*^
!LO:SIC:v:s=4A	!LO:LB:g=original	!	!	!	!	!	!
4G\	8c#\	dig-	4e\	4ee/ 4cc#/	4a\	4ee/ 4cc#/	4a\
.	8c#\	-ni	.	.	.	.	.
4r	16r	.	4r	4r	4ryy	4r	4ryy
.	16c#\	E-	.	.	.	.	.
.	16c#\	-ter-	.	.	.	.	.
.	16d\	-na	.	.	.	.	.
4r	8.A\	glo-	4r	4r	4ryy	4r	4ryy
.	16A\	-ri-	.	.	.	.	.
4AA/	4A\	-a.	4a\	4ee/ 4cc#/	4a\	4ee/ 4cc#/	4a\
*	*	*	*	*v	*v	*	*
*	*	*	*	*	*v	*v
=26	=26	=26	=26	=26	=26
!	!	!	!LO:LB:g=original	!LO:LB:g=original	!LO:LB:g=original
4D\	1r	.	4a\	4ff#/ 4a/ 4d/	4ff#/ 4a/ 4d/
4r	.	.	4r	4r	4r
!LO:TX:b:i:t=Siegueli Aria	!	!	!LO:TX:b:i:t=Ut.Volti	!LO:TX:b:i:t=Ut.Volti	!LO:TX:b:i:t=Ut.Volti
2r;	.	.	2r;	2r;	2r;
==	==	==	==	==	==
*-	*-	*-	*-	*-	*-
!!!system-decoration: [([(s1,s2)]s3)][(s4,s5)]
!!!EED: Andrzej Borzym
!!!EST: 2021-03-31
!!!AIN: 2 empty 1 viola 2 violn
!!!ENC: Tomasz Grochalski
!!!END: 2021-03-16
